X:1
T:Les tendres plaintes
T:Les Tendres Plaintes
T:Jean Philippe Rameau (1683 - 1764) Transcr.: Theo Thomassen 2019 
T:from “Pièces de clavessin” transcription for guitar duo 
T:De Gitaarclub 2019
T:De Gitaarclub 2019
C:Jean Philippe Rameau 91683 - 1764)
Z:De Gitaarclub 2019
%%score ( 1 2 ) ( 3 4 )
L:1/8
Q:1/4=100
M:3/4
K:D
V:1 treble-8 nm="Guitar 1\n(6) = D"
V:2 treble-8 
V:3 treble-8 nm="Guitar 2\n(6) = D"
V:4 treble-8 
V:1
!p! M!2/1/2!d'4 !4!f'2 | !1!b4 !4!d'2 | (!3!c'2 P!3/1/3/1!b2) !1!^a2 |{!1!^a} !2!b4 !4!e'2 | %4
 (!2!d'2 P!2/1/2/1!c'2) !1!b2 | !3!c'2 !1!^a2 !2!b2 | !1!c'2 !2!d'3 !4!e' | P!2/1/2/1!c'6 | %8
 M!2/1/2!d'4 !4!f'2 | !1!b4 !4!d'2 | (!3!c'2 P!3/1/3/1!b2) !1!^a2 |{!1!^a} !2!b4 !4!e'2 | %12
 (!2!d'2 P!2/1/2/1!c'2) !1!b2 | !3!c'2 P!2/1/2/1/!^a2 !2!b2 | !1!c'2 P!2/1/2/1!c'3 !4!b | %15
"^3/6B7" [dfb]6!fine! ||1 !4!d'4 !1!f2 | !3!c'4 !1!f2 | (!3!b2 P!3/1/3/1!a2) !1!^g2 | !2!a4 !4!f2 | %20
 (!3!a2 !4!d'2) !1!f2 | P!2/1/2/1!^e4 !2!f2 | !1!^g2 !2!a3 !4!b | P!2/1/2/1!^g6 | %24
 !3!c'3 !4!d' .!1!b z | !4!d'4 !3!c'2 | !2!f'2 P!2/1/2/1!^e'2 !2!f'2 | %27
({!1!^e'!2!f')} P!2/1/2/1!^g'6 | !4!a'!3!^g'!-(!!1!f'!-)!!1!e'!4!d'!3!c' | %29
 P!1/4/1/4!d'2 !3!c'2 !4!f'2 | P!3/1/3/1!a3 !1!^g !4!f2 |"^3/6B2" !2![^Acf]6 :|2 !3!f4 !4!g2 || %33
 P!3/1/3/1!e4 !3!d2 | !1!a2 a2 a2 | P!3/1/3/1!a4 !3!f2 |"^3/6B7" b4 !4!c'!4!d' | %37
"^3/6B5" a4 !1!b!4!d' | !2!g4"^3/6B5" ae | !4!f3 !4!g!1!a!4!f | !4!b2 !1!e2 e2 | %41
 T!4/0/4/0/sim.!e6- | e3 !4!f!1!e!4!f |"^3/6B7" !2!g!1!f!2!g!1!b!2!g!4!d' | %44
 !1!g!3!a!1!g!3!c'!1!g!4!e' | P!2/1/2/1!f3 !2!g !4!a2 | !1!b2 P!3/1/3/1!e3 !2!d | %47
 !3!!1!!2![FAd]6!D.C.! |] %48
V:2
 x6 | x6 | x6 | x6 | x6 | x6 | x6 | x6 | x6 | x6 | x6 | x6 | x6 | x6 | x6 | x6 ||1 x6 | x6 | x6 | %19
 x6 | x6 | x6 | x6 | x6 | x6 | x6 | x6 | x6 | x6 | x6 | x6 | x6 :|2 x6 || x6 | x6 | x6 | %36
 z !2!g!1!f !3!e3- | e!3!f!1!e"^3/6B7" !1!d3 | !1!d!4!f!3!e!1!d !2!c2 | !3!d6- | d2 !3!d2 d2 | %41
 !3!d6 | c6 | d6 | !2!e6 | !1!d6 | x6 | !0!D,6 |] %48
V:3
!p!"^B2" (!4!B!1!f!2!d!4!B) (!3!F!0!e) | (!3!G!1!d!2!B!3!G) (!0!D!2!f) | %2
 (!1!E!0!e) (!3!F!2!d) (!3!F!1!c) | !3!!2![Bd]4 (!0!G!1!c) | (!3!F!2!d) (!1!E!0!e) (!0!D!2!f) | %5
 !1!E!3!g (!2!c!0!e) (!2!d!1!f) | (!2!^A!1!c) M!3/2/3!B4 | !3!F!4!G!3!F!1!EP!1/4/1/4!D!3!C | %8
 (!1!B,!3!F!4!D!1!B,) (!3!F,!1!E) | (!4!G,!0!D!1!B,!4!G,) !0!D,!3!F | %10
"^B2" (E,E) (!3!F,!4!D) (!3!F,!4!C) | !0!D4 (!4!G,!3!C) | %12
 (!2!F,!0!D)"^B2" (!1!E,!1!E) (!0!D,!3!F) | !1!E,!4!G (!3!C!1!E) (!4!D!3!F) | (!1!E!4!G) !3!F4 | %15
 !4!B6 ||1 (!3!B!1!f!2!d!3!B) (!2!d!3!B) |"^3/6B2" (AfcA) (cA) | (!1!^G!3!f!1!G!3!f) (!2!c!1!^e) | %19
 !4!F4 z2 | !1!F!3!^G!4!A!3!G !4!A!1!F | !3!^G!4!A!1!B!3!G !4!A!1!F | %22
 P!1/4/1/4!^E2"^B4"({!2!^D!4!E)} !1!F4 | !1!C2 !21!c2 P!1/4/1/4!B2 | %24
 !3!A!4!f!2!^e!4!f (!2!^G!3!e-) |"^B4" e2 !1!^g3 !1!a- | a!4!c'!3!b!1!a !1!^g!4!f | %27
 P!4!^e!1!^d!3!c!0!B !2!A!1!^G | !4!F!2!E!0!D!4!C!2!B,!0!A, | z !1!^G2 !2!A !0!D2 | !3!C4 z2 | %31
 !2!F,2 !3!F!1!EP!1/4/1/4!D!3!C :|2 (!4!D!1!A!3!F!0!D) (!4!G,!1!E) || %33
 !0!A,!4!D(!3!C!0!A,) (!1!B,!4!D) | (!3!C!1!E) (!1!B,!4!D) (!0!A,!3!C) | !1/4/1/4!D6 | %36
 z2 !1/4/1/4!G4 | z2 !0/4/0/4!F4 | !1!E,2 !0/2/0/2!A4 | D,2 D2 !3!F,!0!A, | %40
 !4!G,!0!A,!1!B,!3!C!4!D!1!E | !1!^G,!2!A,!1!G,!4!B,!1!G,!2!E | !0!A,!1!B,!0!A,!3!C!0!A,!1!A | %43
 z2 !0!D2- !3![DB]2 |"^B2" z2 !1!E2- !1![EA-]2 | A2 !1!A2 !3!F,!0!D- | D!0!D- D2 !1!!0![CG]2 | %47
 !0!D!1!E!3!F!1!EP!1/4/1/4!D!3!C |] %48
V:4
 B, x5 | x6 | x6 | x6 | x6 | x6 | x4 !1!B,2 | x6 | x6 | x6 | x6 | !2!B,4 z2 | x6 | x6 | x4 !2!^A2 | %15
 x2 !3!F2- !1![B,F]2 ||1 x6 | x6 | x6 | z2 !3!C2- !4![F,C]2 | x6 | x6 | x4 !1!F,2 | x6 | x6 | %25
 !1!B4 !4!A2 | !2!!d x5 | !3!c x5 | x6 | !2!B,2 !0!A,2 D!1!B, | x4 C2 | x6 :|2 x6 || x6 | x6 | %35
 x4 D,2 | !3!G,4 G,2 | !3!F,4 F,2 | x4 !0!A,2 | x6 | x6 | x6 | x6 | !1!B,6 | !3!C6 | !4!D4 x2 | %46
 !4!G,2 !4!A,4 | D,2 x4 |] %48

